svg/transfer_down.svg

<svg xmlns="http://www.w3.org/2000/svg" viewBox="0 0 24 24"><path d="M16 3v2H8V3zm0 4v2H8V7zm0 4v2H8v-2zM5 15h14l-7 7z"/></svg>

<?xml version="1.0" encoding="UTF-8"?><!DOCTYPE svg PUBLIC "-//W3C//DTD SVG 1.1//EN" "http://www.w3.org/Graphics/SVG/1.1/DTD/svg11.dtd"><svg xmlns="http://www.w3.org/2000/svg" xmlns:xlink="http://www.w3.org/1999/xlink" version="1.1" id="mdi-transfer-down" width="24" height="24" viewBox="0 0 24 24"><path d="M16,3V5H8V3H16M16,7V9H8V7H16M16,11V13H8V11H16M5,15H19L12,22L5,15Z" /></svg>
